X:1
T:Christmas Day Song
T:Christmas Day Song
T:C. E. Hecht
T:C. E. Hecht, 1893, alt.
T:Public Domain Courtesy of the Cyber Hymnal™
T:Public Domain Courtesy of the Cyber Hymnal™
C:C. E. Hecht
Z:Public Domain
Z:Courtesy of the Cyber Hymnal™
%%score ( 1 2 ) ( 3 4 )
L:1/8
Q:1/4=95
M:4/4
K:F
V:1 treble 
V:2 treble 
V:3 bass 
V:4 bass 
V:1
 C>C | [CF]2 C>C [CF]2 C>C | [CF]>[EG] [FA]>[GB] [Ac]2 [FA]>[Fc] | %3
w: 1.~Bless- èd|song that the throng Of re-|joic- ing an- gels brought, From the|
w: 2.~An- gels|knew, God was true, At His|pro- mised Sav- ior’s birth, Glad to|
w: 3.~Ban- ish|care and des- pair, While we|keep this fes- tal day, Ev- ery|
w: 4.~Let us|now hum- bly bow, At the|in- fant Sav- ior’s feet, Here re-|
 [Fd][Fd] [FB]>[Fd] [Fc]2 [FA]>[FA] | [EG]>[EG] [FA]>[EG] [EG]2 C>C | [CF]2 C>C [CF]2 C>C | %6
w: heav’n- ly choirs a- bove, And to|Ju- dah’s shep- herds taught; Peace on|earth, Christ is born, Hail the|
w: tell the news they flew, To the|wait- ing sons of earth; Then may|we hap- py be, We, whom|
w: grate- ful heart pre- pare, Lov- ing|thanks and praise to pay; Ev- ery|tear, ev- ery fear, Of the|
w: cord our sol- emn vow, That no|o- ther king we’ll greet; Him we|crown, Him we own, Sav- ior,|
 [CF]>[EG] [FA]>[GB] ([Ac]2 [G^c]2) | [Fd]2 [FB]>[DG] [CF]2 [CE]>[EG] | [EG]4 F4 || %9
w: first glad Christ- mas morn, *|Glo- ry to God in the|high- est.|
w: Je- sus came to free, *|While we re- peat their sweet|cho- rus.|
w: past and pass- ing year, *|For- get and sing with the|an- gels.|
w: king and Lord a- lone, *|Je- sus! the glo- ry of|an- gels.|
"^Refrain" [FB]2 [FB]2 [FA]3 [FA] | [DG]2 [DF]2 [EG]4 | [FB]2 [FB]>[FB] [FA]3 [FA] | %12
w: |||
w: Peace on earth, ’tis|mer- cy’s plan,|Glo- ry to God, good|
w: |||
w: |||
 [FG]2 [F=B]2 !fermata![Ec]2 C>C | [CF]2 C>C [CF]2 C>C | [CF]>[EG] [FA]>[GB] [Ac]2 [G^c]2 | %15
w: |||
w: will to man, Ev- er|sing while you bring, On each|hap- py Christ- mas day, Your|
w: |||
w: |||
 [Fd]2 [FB]>[DG] [CF]2 ([CE]>[EG]) | [EG]4 !fermata!F2 |] %17
w: ||
w: hearts un- to Him an *|off- ering.|
w: ||
w: ||
V:2
 C>C | x2 C>C x3/2 C>C x/ | x8 | x8 | x6 C>C | x2 C>C x3/2 C>C x/ | x8 | x8 | x4 F4 || x8 | x8 | %11
 x8 | x6 C>C | x2 C>C x3/2 C>C x/ | x8 | x8 | x4 F2 |] %17
V:3
 [F,A,]>[F,A,] | [F,A,]2 [F,A,]>[F,A,] [F,A,]2 [F,A,]>[F,A,] | %2
 [F,A,]>[C,C] [F,C]>[F,C] [F,C]2 [F,C]>[F,A,] | [B,,B,][B,,B,] [D,B,]>[B,,B,] [F,A,]2 [F,C]>[F,C] | %4
 [C,C]>[C,C] [C,C]>[C,C] [C,C]2 [C,B,]>[E,G,] | [F,A,]2 [F,A,]>[F,A,] [F,A,]2 [F,A,]>[F,A,] | %6
 [F,A,]>[C,C] [F,C]>[F,C] ([F,C]2 [E,A,]2) | [D,A,]2 [D,B,]>[B,,B,] [C,B,]2 [C,G,]>[C,B,] | %8
 [C,B,]4 [F,A,]4 || [D,B,]2 [D,B,]2 [C,C]3 [C,C] | [G,=B,]2 [G,B,]2 [C,C]4 | %11
 [_D,B,]2 [D,B,]>[D,B,] [C,C]3 [C,C] | [G,=B,]2 [G,D]2 !fermata![C,C]2 [F,A,]>[F,A,] | %13
 [F,A,]2 [F,A,]>[F,A,] [F,A,]2 [F,A,]>[F,A,] | [F,A,]>[C,C] [F,C]>[F,C] [F,C]2 [E,A,]2 | %15
 [D,A,]2 [D,B,]>[B,,B,] [C,A,]2 (G,>B,) | [C,B,]4 !fermata![F,A,]2 |] %17
V:4
 x2 | x8 | x8 | x8 | x8 | x8 | x8 | x8 | x8 || x8 | x8 | x8 | x8 | x8 | x8 | x6 C,2 | x6 |] %17

